packages/nodes-base/nodes/Orbit/orbit.svg

<?xml version="1.0" encoding="utf-8"?>
<svg width="80px" height="80px" fill="none" viewBox="13.5 9.957 132 91.59" xmlns="http://www.w3.org/2000/svg">
  <path fill-rule="evenodd" clip-rule="evenodd" d="M119.047 49.0982C118.081 41.7948 115.336 34.8402 111.054 28.8452C106.773 22.8503 101.085 17.9982 94.4895 14.7152C87.8945 11.4322 80.5943 9.81863 73.2299 10.0162C65.8655 10.2137 58.6623 12.2164 52.2527 15.8482C45.8432 19.4801 40.4233 24.6301 36.4692 30.846C32.515 37.0619 30.1474 44.1536 29.5744 51.4983C29.0013 58.843 30.2403 66.216 33.1825 72.97C36.1248 79.724 40.6802 85.6523 46.4489 90.2343C50.8655 88.2677 55.6945 85.9719 60.8235 83.397C55.6358 80.9116 51.2279 77.0528 48.0782 72.2395C44.9284 67.4262 43.157 61.8421 42.9562 56.0933C42.7554 50.3445 44.1328 44.6505 46.9391 39.6291C49.7454 34.6078 53.8733 30.4509 58.8749 27.6095C63.8764 24.7682 69.5607 23.3509 75.3108 23.5114C81.0608 23.6719 86.6571 25.4042 91.4924 28.5202C96.3276 31.6362 100.217 36.017 102.739 41.1871C105.261 46.3572 106.318 52.1192 105.797 57.8479C110.547 54.8355 114.988 51.9022 119.047 49.0982ZM119.426 54.198C114.88 57.5604 109.843 61.0436 104.426 64.556C102.007 72.1442 96.8025 78.534 89.861 82.4388C82.9194 86.3437 74.7562 87.4736 67.0149 85.6011C61.0776 88.4552 55.4445 90.9259 50.2863 92.9717C57.147 97.3349 65.0617 99.7578 73.1892 99.9828C81.3167 100.208 89.3533 98.2265 96.4448 94.2495C103.536 90.2725 109.418 84.4484 113.464 77.3962C117.511 70.3441 119.571 62.3273 119.426 54.198Z" fill="#1D2125"/>
  <path fill-rule="evenodd" clip-rule="evenodd" d="M121.709 17.5992C122.318 17.5992 122.913 17.4186 123.42 17.0803C123.926 16.7419 124.321 16.2611 124.554 15.6984C124.787 15.1358 124.848 14.5167 124.729 13.9194C124.61 13.3222 124.317 12.7735 123.886 12.3429C123.456 11.9123 122.907 11.619 122.31 11.5002C121.712 11.3814 121.093 11.4424 120.531 11.6754C119.968 11.9085 119.487 12.3031 119.149 12.8095C118.81 13.3158 118.63 13.9112 118.63 14.5201C118.629 14.9246 118.709 15.3253 118.863 15.6991C119.018 16.0729 119.244 16.4126 119.531 16.6986C119.817 16.9846 120.156 17.2114 120.53 17.3659C120.904 17.5205 121.304 17.5997 121.709 17.5992Z" fill="#00ADE8"/>
  <path fill-rule="evenodd" clip-rule="evenodd" d="M18.1041 69.9141C18.9163 69.9141 19.7102 69.6731 20.3854 69.2216C21.0606 68.7701 21.5866 68.1284 21.8969 67.3778C22.2071 66.6271 22.2877 65.8013 22.1283 65.0048C21.9689 64.2084 21.5768 63.4772 21.0016 62.9037C20.4264 62.3302 19.6939 61.9404 18.897 61.7834C18.1001 61.6265 17.2745 61.7095 16.5248 62.0221C15.7751 62.3346 15.135 62.8626 14.6856 63.5391C14.2361 64.2157 13.9975 65.0104 14 65.8226C14.0033 66.9089 14.4372 67.9496 15.2065 68.7165C15.9758 69.4835 17.0178 69.9141 18.1041 69.9141Z" fill="#00ADE8"/>
  <path fill-rule="evenodd" clip-rule="evenodd" d="M87.4143 45.7399C91.8475 43.29 96.164 40.9651 100.33 38.8193C100.485 39.0693 100.651 39.3651 100.826 39.6985C96.6973 41.8567 92.3808 44.19 87.9476 46.6441L87.4143 45.7399ZM144.996 23.8782C143.017 20.4491 131.017 24.0906 114.034 32.0279C114.193 32.2904 114.351 32.5612 114.501 32.8362C130.771 25.0906 142.125 21.3616 143.567 24.3615C145.833 28.2863 119.817 47.544 85.4852 67.3726C51.153 87.2011 21.4623 100.092 19.1957 96.1674C17.9041 93.8342 24.2913 87.4761 30.0287 82.4179C21.7664 89.0843 17.4332 94.2217 18.8582 96.6883C22.0914 102.292 53.3862 91.2718 88.2226 71.1724C123.059 51.0731 148.246 29.4821 144.996 23.8782Z" fill="#00ADE8"/>
  <path d="M83.3353 48.9982C82.6012 47.7384 82.3267 46.263 82.5588 44.8236C82.7909 43.3842 83.5151 42.0698 84.6079 41.1046C85.7007 40.1394 87.0944 39.5831 88.5515 39.5306C90.0086 39.4781 91.4388 39.9327 92.5982 40.8168C93.7576 41.7008 94.5745 42.9597 94.9095 44.3787C95.2445 45.7978 95.077 47.2891 94.4354 48.5983C93.7939 49.9076 92.718 50.9539 91.3913 51.5586C90.0646 52.1634 88.5692 52.2892 87.1601 51.9147C86.3577 51.7143 85.6046 51.3523 84.947 50.8508C84.2893 50.3493 83.7409 49.7189 83.3353 48.9982Z" fill="#DD078C"/>
  <path style="fill: rgb(216, 216, 216); stroke: rgb(0, 0, 0);" d="M 136.262 12.714"/>
</svg>

<svg width="80" height="80" fill="none" viewBox="13.5 9.957 132 91.59" xmlns="http://www.w3.org/2000/svg"><path fill-rule="evenodd" clip-rule="evenodd" d="M119.047 49.098A44.997 44.997 0 0 0 73.23 10.016a44.999 44.999 0 0 0-26.781 80.218c4.416-1.966 9.245-4.262 14.375-6.837a31.493 31.493 0 0 1-1.95-55.788 31.496 31.496 0 0 1 46.923 30.239 405.85 405.85 0 0 0 13.25-8.75zm.379 5.1c-4.546 3.362-9.583 6.846-15 10.358a31.493 31.493 0 0 1-37.411 21.045c-5.937 2.854-11.57 5.325-16.729 7.37a44.999 44.999 0 0 0 69.14-38.773z" fill="#1D2125"/><path fill-rule="evenodd" clip-rule="evenodd" d="M121.709 17.6a3.082 3.082 0 0 0 2.845-1.902 3.078 3.078 0 0 0-4.023-4.023 3.076 3.076 0 0 0-1.901 2.845 3.077 3.077 0 0 0 3.079 3.08zM18.104 69.914a4.104 4.104 0 1 0 0-8.208 4.104 4.104 0 0 0 0 8.208zM87.414 45.74c4.433-2.45 8.75-4.775 12.916-6.92.155.25.321.545.496.879a615.52 615.52 0 0 0-12.878 6.945l-.534-.904zm57.582-21.862c-1.979-3.429-13.979.213-30.962 8.15.159.262.317.533.467.808 16.27-7.745 27.624-11.474 29.066-8.474 2.266 3.924-23.75 23.182-58.082 43.01-34.332 19.83-64.023 32.72-66.29 28.795-1.29-2.333 5.096-8.69 10.834-13.75-8.263 6.667-12.596 11.805-11.17 14.271 3.232 5.604 34.527-5.416 69.364-25.516 34.836-20.099 60.023-41.69 56.773-47.294z" fill="#00ADE8"/><path d="M83.335 48.998a6.3 6.3 0 1 1 3.825 2.917 6.078 6.078 0 0 1-3.825-2.917z" fill="#DD078C"/></svg>
